X:1
T:Title
%%score { 1 | ( 2 3 ) } { 4 | 5 }
L:1/8
Q:1/4=100
M:4/4
K:C
V:1 treble nm="Grand Piano, Staff"
V:2 treble 
V:3 treble 
V:4 bass nm="Grand Piano, Staff-1"
V:5 bass 
V:1
 E2 G2 A2 G2 | c4 G4 | F2 E2 .D4 | z8 | z2 E2 F2 E2 | D2 E2 C2 _B,2 | A2 G2 E2 C2 | E4 D4 | %8
w: By~William~Henry~Monk * * *||||||||
 G2 G2 A2 G2 | c4 B4 | A2 G2 B2 A2 | G8 | C2 G2 F2 E2 | A4 D4 | G2 C2 E2 D2 | C8 |] %16
w: ||||||||
V:2
 C2 C2 C2 C2 | C4 C2 D2 | C2 C2 C2 z C | C8 | C2 A,2 A,2 A,2 | B,4 z4 | G,2 C2 B,2 z2 | C4 B,4 | %8
 B,2 B,2 B,2 B,2 | C4 D4 | E2 D2 D2 C2 | B,8 | z2 C2 C2 C2 | C4 C2 B,2 | C2 z2 C2 B,2 | z8 |] %16
V:3
 x8 | x8 | z4 z2 B,2 | x8 | x8 | x8 | x8 | x8 | x8 | x8 | x8 | x8 | x8 | x8 | x8 | x8 |] %16
V:4
 G,2 E,2 F,2 G,2 | G,2 F,2 E,2 G,2 | C,2 E,2 A,2 G,2 | E,8 | E,2 C,2 D,2 C,2 | F,2 E,2 E,4 | %6
 F,2 E,2 E,2 E,F, | G,8 | G,2 G,2 G,2 G,2 | G,2 ^F,2 G,4 | E,^F, G,2 G,2 F,2 | G,4 F,4 | %12
 E,2 E,2 F,2 G,2 | D,4 D,4 | E,2 E,2 G,2 F,2 | E,8 |] %16
V:5
 C,2 C,2 z2 E,2 | A,,4 C,2 B,,2 | A,,2 G,,2 F,,2 G,,2 | C,8 | A,,2 A,,2 z2 A,,2 | %5
 A,,2 G,,2 A,,2 ^F,,2 | F,,2 C,2 G,,2 A,,2 | G,,8 | z4 F,2 F,2 | E,2 A,,2 G,,2 B,,2 | %10
 C,2 B,,C, D,2 D,2 | G,,8 | A,,2 A,,2 A,,2 G,,2 | F,,4 G,,4 | E,,2 A,,2 G,,2 G,,2 | C,8 |] %16

